X: 18243
T: Humours Of Lisheen, The
R: jig
M: 6/8
K: Gmajor
|:(3Bcd|efgf edBd|~c3 A BGEF|GFGA BGdG|B2 A2 A2 (3Bcd|
efgf edBd|cBAc BGEF|~G3 A BGdB|A2 G2 G2:|:(3DEF|
GABd g2 fg|agfa ~g3 f|gfeg fdBd|cBAc BGEF|
GABd g2 fg|agfa ~g3 f|gfeg fd (3BdB|A2 G2 G2:|

